X:1
T:Galilee, Bright Galilee
T:William Fiske Sherwin, 1880
T:Galilee, Bright Galilee
T:Public Domain
T:Public Domain
C:William Fiske Sherwin, 1880
Z:Public Domain
%%score ( 1 2 ) ( 3 4 )
L:1/8
M:3/4
K:Bb
V:1 treble 
V:2 treble 
V:3 bass 
V:4 bass 
V:1
 [DB][DF] [DF]2 [DB]2 | [EB][EA] [EA]4 | [Ec][EF] [EF]2 [Ec]2 | [Ec][DB] [DB]4 | %4
w: 1.~Gal- i- lee, bright|Gal- i- lee,|Hal- lowed thoughts we|turn to thee!|
w: 2.~Once a- long that|rug- ged shore|He, Who all our|sor- rows bore,|
w: 3.~Wild the night on|Gal- i- lee;|Loud- ly roared the|an- gry sea,|
w: 4.~Still in lov- ing|ten- der- ness|Doth the mast- er|wait to bless;|
 [Fd][DF] [DF]2 [Fd]2 | [=Ed][Ec] ([Dc]2 [GB]2) | [FA][Ac] [FA]2 F2 | [=EG]F F4 | %8
w: Wo- ven through thy|his- to- ry, *|Gleams the charm- ing|te- ry Of|
w: Jour- neyed oft with|wea- ry feet, *|Through the storm or|ing heat; Heal-|
w: When up- on the|toss- ing wave *|Je- sus walked, His|to save: Calmed|
w: Still His touch up-|on the soul *|Bring- eth balm and|eth whole; Still|
 [Fd][Fd] [Ge]2 [Fd]2 | [Ec][D=B] [Ec]4 | [Ec][Ec] [Fd]2 [Ec]2 | [DB][EB] [DB]4 | %12
w: of one who came,|Bear- ing grief,|re- proach and shame,|Sa- vior of|
w: who came in faith,|Call- ing back|to life from death;|King of kings|
w: mult by His will,|On- ly say-|ing, “Peace, be still!”|Ru- ler of|
w: forts mourn- ing hearts,|Life, and joy,|and peace im- parts;|Still the friend|
 [DF][^C=E] [DF]2 [DB]2 | [Fd][Fc] [FB]4 | [GB][EG] [EG]2 [FB]2 | [Ec][DB] [DB]4 |] %16
w: the world to be;|“God with us”|by Gal- i- lee.||
w: from Heaven was He,|Though so poor|by Gal- i- lee!||
w: the storm was He,|On the ra-|ging Gal- i- lee!||
w: of all is He,|As of old|by Gal- i- lee!||
V:2
 x6 | x6 | x6 | x6 | x6 | x6 | x4 F2 | x F F4 | x6 | x6 | x6 | x6 | x6 | x6 | x6 | x6 |] %16
w: ||||||mys-|the life|||||||||
w: ||||||burn-|ing all|||||||||
w: ||||||own|the tu-|||||||||
w: ||||||mak-|He com-|||||||||
V:3
 [B,,F,][B,,F,] [B,,F,]2 [B,,F,]2 | [C,F,][C,F,] [C,F,]4 | [F,A,][F,A,] [F,A,]2 [F,A,]2 | %3
 [B,,B,][B,,B,] [B,,B,]4 | [B,,B,][B,,B,] [B,,B,]2 [B,,B,]2 | [C,G,][C,G,] ([C,G,]2 [=E,C]2) | %6
 [F,C][F,C] [F,C]2 [A,,C]2 | [C,B,][F,A,] [F,A,]4 | B,B, B,2 B,2 | [F,A,][F,^G,] [F,A,]4 | %10
 [F,A,][F,A,] [F,A,]2 [F,A,]2 | [B,,B,][B,,G,] [B,,F,]4 | [B,,F,][B,,G,] [B,,F,]2 [B,,F,]2 | %13
 [B,,B,][C,A,] [D,B,]4 | [E,B,][E,B,] [E,B,]2 [D,B,]2 | [F,A,][B,,B,] [B,,B,]4 |] %16
V:4
 x6 | x6 | x6 | x6 | x6 | x6 | x6 | x6 | B,B, B,2 B,2 | x6 | x6 | x6 | x6 | x6 | x6 | x6 |] %16

